svg/nature/wreath_line.svg

<?xml version="1.0" encoding="UTF-8"?>
<svg width="24px" height="24px" viewBox="0 0 24 24" version="1.1" xmlns="http://www.w3.org/2000/svg" xmlns:xlink="http://www.w3.org/1999/xlink">
    <title>wreath_line</title>
    <g id="Icon" stroke="none" stroke-width="1" fill="none" fill-rule="evenodd">
        <g id="Part" transform="translate(-96.000000, -192.000000)">
            <g id="wreath_line" transform="translate(96.000000, 192.000000)">
                <path d="M24,0 L24,24 L0,24 L0,0 L24,0 Z M12.5935,23.2578 L12.5819,23.2595 L12.5109,23.295 L12.4919,23.2987 L12.4767,23.295 L12.4057,23.2595 C12.3958,23.2564 12.387,23.259 12.3821,23.2649 L12.378,23.2758 L12.3609,23.7031 L12.3659,23.7235 L12.3769,23.7357 L12.4805,23.8097 L12.4953,23.8136 L12.5071,23.8097 L12.6107,23.7357 L12.6233,23.7197 L12.6267,23.7031 L12.6096,23.2758 C12.6076,23.2657 12.601,23.2593 12.5935,23.2578 Z M12.8584,23.1453 L12.8445,23.1473 L12.6598,23.2397 L12.6499,23.2499 L12.6472,23.2611 L12.6651,23.6906 L12.6699,23.7034 L12.6784,23.7105 L12.8793,23.8032 C12.8914,23.8069 12.9022,23.803 12.9078,23.7952 L12.9118,23.7812 L12.8777,23.1665 C12.8753,23.1546 12.8674,23.147 12.8584,23.1453 Z M12.143,23.1473 C12.1332,23.1424 12.1222,23.1453 12.1156,23.1526 L12.1099,23.1665 L12.0758,23.7812 C12.0751,23.7927 12.0828,23.8019 12.0926,23.8046 L12.1083,23.8032 L12.3092,23.7105 L12.3186,23.7024 L12.3225,23.6906 L12.3404,23.2611 L12.3372,23.2485 L12.3278,23.2397 L12.143,23.1473 Z" id="MingCute" fill-rule="nonzero"></path>
                <path d="M14.5945,2.89695 C13.0995,1.62289 10.9006,1.62289 9.40559,2.89695 C9.03113,3.21607 8.59752,3.39636 8.10503,3.43566 C6.147,3.59191 4.59215,5.14675 4.4359,7.10479 C4.3966,7.59728 4.21631,8.03088 3.89719,8.40535 C2.62314,9.90038 2.62314,12.0993 3.89719,13.5943 C4.21631,13.9688 4.3966,14.4024 4.4359,14.8948 C4.59215,16.8529 6.147,18.4077 8.10504,18.564 C8.55927,18.6002 8.98401,18.7434 9.33527,19.0428 C9.38558,19.0856 9.43566,19.1288 9.48708,19.1703 C9.4435,19.4459 9.29474,19.64 9.10988,19.7941 C8.98069,19.9018 8.83066,19.9931 8.67373,20.0546 C8.15626,20.2331 7.87786,20.7955 8.05138,21.316 C8.22409,21.8342 8.80047,22.1209 9.31803,21.9479 C9.70774,21.8168 10.0761,21.5923 10.3902,21.3305 C10.7443,21.0355 11.1214,20.5982 11.3322,20.0023 C11.7741,20.0769 12.226,20.0769 12.6679,20.0023 C12.8787,20.5982 13.2558,21.0355 13.6099,21.3305 C13.924,21.5923 14.2924,21.8168 14.6821,21.9479 C14.6847,21.9488 14.6838,21.9485 14.6838,21.9485 C15.2078,22.1231 15.7741,21.84 15.9487,21.316 C16.129,20.7752 15.8201,20.2478 15.3108,20.0485 C15.2511,20.0243 15.06,19.9356 14.8902,19.7941 C14.7054,19.64 14.5566,19.4459 14.513,19.1703 C14.5645,19.1288 14.6145,19.0856 14.6649,19.0428 C15.0161,18.7434 15.4409,18.6002 15.8951,18.564 C17.8531,18.4077 19.408,16.8529 19.5642,14.8948 C19.6035,14.4024 19.7838,13.9688 20.1029,13.5943 C21.377,12.0993 21.377,9.90038 20.1029,8.40535 C19.7838,8.03088 19.6035,7.59728 19.5642,7.10479 C19.408,5.14675 17.8531,3.59191 15.8951,3.43566 C15.4047,3.39652 14.9706,3.2174 14.5945,2.89695 Z M13.3676,4.4791 C14.0083,5.02506 14.8048,5.35501 15.6439,5.42197 C15.8463,5.43812 16.0444,5.46748 16.2372,5.53482 C16.0745,5.57898 15.9207,5.66495 15.793,5.79271 L14.3685,7.21719 C14.1719,7.14557 13.963,7.09914 13.7457,7.08181 C13.6685,7.07564 13.5951,7.04527 13.5362,6.995 C12.651,6.24068 11.3491,6.24068 10.464,6.995 C10.405,7.04527 10.3317,7.07564 10.2544,7.08181 C10.0371,7.09914 9.82827,7.14557 9.63165,7.21719 L8.20717,5.79271 C8.07941,5.66495 7.92567,5.57898 7.76296,5.53482 C7.9557,5.46748 8.15379,5.43812 8.35623,5.42197 C9.19529,5.35501 9.99185,5.02507 10.6325,4.4791 C11.4421,3.78914 12.5653,3.79541 13.3676,4.4791 Z M17.2072,7.20693 C17.3349,7.07916 17.4209,6.92543 17.4651,6.76272 C17.5324,6.95545 17.5618,7.15355 17.5779,7.35598 C17.648,8.23429 18.0128,9.03618 18.5807,9.70258 C19.2534,10.4919 19.1733,11.6017 18.5208,12.3674 C17.9748,13.008 17.6449,13.8046 17.5779,14.6437 C17.5618,14.8461 17.5324,15.0442 17.4651,15.2369 C17.4209,15.0742 17.3349,14.9205 17.2072,14.7927 L15.7827,13.3682 C15.8543,13.1716 15.9007,12.9627 15.9181,12.7455 C15.9242,12.6682 15.9546,12.5949 16.0049,12.5359 C16.7592,11.6508 16.7592,10.3489 16.0049,9.46373 C15.9546,9.40475 15.9242,9.33141 15.9181,9.25417 C15.9007,9.0369 15.8543,8.82802 15.7827,8.63141 L17.2072,7.20693 Z M14.3685,14.7824 C14.1719,14.8541 13.963,14.9005 13.7457,14.9178 C13.6685,14.924 13.5951,14.9544 13.5362,15.0046 C12.651,15.759 11.3491,15.759 10.464,15.0046 C10.405,14.9544 10.3317,14.924 10.2544,14.9178 C10.0371,14.9005 9.82827,14.8541 9.63165,14.7824 L8.20717,16.2069 C8.07941,16.3347 7.92567,16.4207 7.76296,16.4648 C7.9557,16.5322 8.15379,16.5615 8.35623,16.5777 C9.23454,16.6478 10.0364,17.0126 10.7028,17.5805 C11.4503,18.2175 12.5498,18.2175 13.2973,17.5805 C13.9637,17.0126 14.7656,16.6478 15.6439,16.5777 C15.8463,16.5615 16.0444,16.5322 16.2372,16.4648 C16.0745,16.4207 15.9207,16.3347 15.793,16.2069 L14.3685,14.7824 Z M6.53506,15.2369 C6.46772,15.0442 6.43837,14.8461 6.42221,14.6437 C6.35526,13.8046 6.02531,13.008 5.47935,12.3674 C4.79565,11.5651 4.78939,10.4419 5.47935,9.63226 C6.02531,8.99161 6.35526,8.19505 6.42221,7.35598 C6.43837,7.15355 6.46772,6.95545 6.53506,6.76272 C6.57923,6.92543 6.66519,7.07916 6.79296,7.20693 L8.21744,8.63141 C8.14581,8.82802 8.09939,9.0369 8.08205,9.25417 C8.07589,9.33141 8.04551,9.40475 7.99525,9.46373 C7.24093,10.3489 7.24093,11.6508 7.99525,12.5359 C8.04551,12.5949 8.07589,12.6682 8.08205,12.7455 C8.09939,12.9627 8.14581,13.1716 8.21744,13.3682 L6.79296,14.7927 C6.66519,14.9205 6.57923,15.0742 6.53506,15.2369 Z M11.7612,8.51723 C11.8988,8.39994 12.1013,8.39994 12.2389,8.51723 C12.6182,8.84048 13.0898,9.03583 13.5866,9.07547 C13.7669,9.08985 13.91,9.233 13.9244,9.41326 C13.9641,9.91004 14.1594,10.3817 14.4826,10.761 C14.5999,10.8986 14.5999,11.101 14.4826,11.2387 C14.1594,11.618 13.9641,12.0896 13.9244,12.5864 C13.91,12.7666 13.7669,12.9098 13.5866,12.9242 C13.0898,12.9638 12.6182,13.1592 12.2389,13.4824 C12.1013,13.5997 11.8988,13.5997 11.7612,13.4824 C11.3819,13.1592 10.9103,12.9638 10.4135,12.9242 C10.2332,12.9098 10.0901,12.7666 10.0757,12.5864 C10.0361,12.0896 9.84072,11.618 9.51748,11.2387 C9.40018,11.101 9.40018,10.8986 9.51748,10.761 C9.84072,10.3817 10.0361,9.91004 10.0757,9.41326 C10.0901,9.233 10.2332,9.08985 10.4135,9.07547 C10.9103,9.03583 11.3819,8.84048 11.7612,8.51723 Z" id="形状" fill="#09244B"></path>
            </g>
        </g>
    </g>
</svg>

<svg xmlns="http://www.w3.org/2000/svg" width="24" height="24"><g fill="none" fill-rule="evenodd"><path d="M24 0v24H0V0h24ZM12.594 23.258l-.012.002-.071.035-.02.004-.014-.004-.071-.036c-.01-.003-.019 0-.024.006l-.004.01-.017.428.005.02.01.013.104.074.015.004.012-.004.104-.074.012-.016.004-.017-.017-.427c-.002-.01-.009-.017-.016-.018Zm.264-.113-.014.002-.184.093-.01.01-.003.011.018.43.005.012.008.008.201.092c.012.004.023 0 .029-.008l.004-.014-.034-.614c-.003-.012-.01-.02-.02-.022Zm-.715.002a.023.023 0 0 0-.027.006l-.006.014-.034.614c0 .012.007.02.017.024l.015-.002.201-.093.01-.008.003-.011.018-.43-.003-.012-.01-.01-.184-.092Z"/><path fill="#09244B" d="M14.595 2.897a4 4 0 0 0-5.19 0c-.374.32-.807.5-1.3.539a4 4 0 0 0-3.67 3.669c-.038.492-.219.926-.538 1.3a4 4 0 0 0 0 5.19c.32.374.5.807.539 1.3a4 4 0 0 0 3.669 3.669c.454.036.879.18 1.23.479.05.043.1.086.152.127-.043.276-.192.47-.377.624-.13.108-.28.2-.436.26a1 1 0 0 0-.623 1.262c.173.518.75.805 1.267.632.39-.131.758-.356 1.072-.617.354-.296.731-.733.942-1.329.442.075.894.075 1.336 0 .21.596.588 1.034.942 1.329.314.261.682.486 1.072.617h.002a1 1 0 0 0 1.265-.632c.18-.54-.129-1.068-.638-1.267a1.762 1.762 0 0 1-.42-.255c-.186-.154-.334-.348-.378-.624.052-.041.101-.084.152-.127.351-.3.776-.443 1.23-.479a4 4 0 0 0 3.67-3.67c.038-.492.219-.925.538-1.3a4 4 0 0 0 0-5.189c-.32-.374-.5-.808-.539-1.3a4 4 0 0 0-3.669-3.67 2.233 2.233 0 0 1-1.3-.538Zm-1.227 1.582a4 4 0 0 0 2.276.943c.202.016.4.045.593.113a.995.995 0 0 0-.444.258l-1.424 1.424a2.367 2.367 0 0 0-.623-.135.368.368 0 0 1-.21-.087 2.368 2.368 0 0 0-3.072 0 .368.368 0 0 1-.21.087 2.367 2.367 0 0 0-.622.135L8.207 5.793a.995.995 0 0 0-.444-.258c.193-.068.39-.097.593-.113a4 4 0 0 0 2.277-.943 2.073 2.073 0 0 1 2.735 0Zm3.84 2.728a.996.996 0 0 0 .257-.444c.067.192.097.39.113.593.07.878.435 1.68 1.003 2.347.672.789.592 1.899-.06 2.664a4 4 0 0 0-.943 2.277c-.016.202-.046.4-.113.593a.997.997 0 0 0-.258-.444l-1.424-1.425c.071-.196.118-.405.135-.623a.368.368 0 0 1 .087-.21 2.368 2.368 0 0 0 0-3.071.368.368 0 0 1-.087-.21 2.371 2.371 0 0 0-.135-.623l1.424-1.424Zm-2.84 7.575a2.363 2.363 0 0 1-.622.136.369.369 0 0 0-.21.087 2.368 2.368 0 0 1-3.072 0 .369.369 0 0 0-.21-.087 2.363 2.363 0 0 1-.622-.136l-1.425 1.425a.994.994 0 0 1-.444.258c.193.067.39.096.593.113.879.07 1.68.435 2.347 1.003a2 2 0 0 0 2.594 0c.667-.568 1.469-.933 2.347-1.003.202-.017.4-.046.593-.113a.994.994 0 0 1-.444-.258l-1.424-1.425Zm-7.833.455a2.343 2.343 0 0 1-.113-.593 4 4 0 0 0-.943-2.277 2.073 2.073 0 0 1 0-2.735 4 4 0 0 0 .943-2.276c.016-.202.046-.4.113-.593.044.162.13.316.258.444L8.217 8.63a2.368 2.368 0 0 0-.135.623.368.368 0 0 1-.087.21 2.368 2.368 0 0 0 0 3.072c.05.059.08.132.087.21.017.217.064.426.135.622l-1.424 1.425a.996.996 0 0 0-.258.444Zm5.226-6.72a.368.368 0 0 1 .478 0c.38.323.85.519 1.348.558.18.015.323.158.337.338.04.497.235.969.559 1.348a.368.368 0 0 1 0 .478c-.324.379-.519.85-.559 1.347a.368.368 0 0 1-.337.338c-.497.04-.969.235-1.348.558a.368.368 0 0 1-.478 0 2.368 2.368 0 0 0-1.347-.558.368.368 0 0 1-.338-.338 2.368 2.368 0 0 0-.559-1.347.368.368 0 0 1 0-.478c.324-.38.52-.851.559-1.348a.368.368 0 0 1 .338-.338c.496-.04.968-.235 1.347-.558Z"/></g></svg>
